X: 23
T: 23. Lord Cathcart's Reel
M: C
L: 1/8
Q: 1/4=140
K: Edor
d2-d>A F>G AF | d2-d>A cdef | d2-d>A FGAF | E e2 d c>d e2 :|!
f>d a2 f>d a2 | gfed ceeg | f>d a2 f>d a2 | gfed cdef |!
d2 d>A F>A dF | d2 d>A cdef | d2 d>A FGAF | E e2 d c>d e2 |]!

